!!!COM: Beethoven
!!!OTL: 13 Variationen uber "Es war einmal ein alter Mann" aus "Das rote Kappchen" von K. Ditters von Dittersdorf
!!!Variation: Variation 11 c
**function	**harm	**kern	**kern
*	*	*clefF4	*clefG2
*	*	*k[f#c#g#]	*k[f#c#g#]
*M6/8	*M6/8	*M6/8	*M6/8
*A:	*A:	*A:	*A:
8D	8V	(8BBJ	16G# 16B
.	.	.	16eJJ
=422	=422	=422	=422
4.D	4.IV/V	8C#'L)	16BLL
.	.	.	16A
.	.	8AA'	16a
.	.	.	16A
.	.	(8EJ	16a
.	.	.	16AJJ
4.D	4.V7/V	8D#'L)	16BLL
.	.	.	16A
.	.	8BB'	16a
.	.	.	16A
.	.	(8F#J	16a
.	.	.	16AJJ
=423	=423	=423	=423
2.D	2.I/V	8E'L)	16BLL
.	.	.	16G#
.	.	8BB'	16g#
.	.	.	16e
.	.	(8G#J	16g#
.	.	.	16eJJ
.	.	8B'L)	16g#LL
.	.	.	16e
.	.	8G#'	16g#
.	.	.	16e
.	.	8E'J	16G#
.	.	.	16eJJ
=424	=424	=424	=424
4.D	4.IV/V	8C#'L	16r
.	.	.	16ALL
.	.	8AA'	16a
.	.	.	16A
.	.	(8EJ	16a
.	.	.	16AJJ
4.D	4.V7/V	8D#'L)	16BLL
.	.	.	16A
.	.	8BB'	16a
.	.	.	16A
.	.	(8F#J	16a
.	.	.	16AJJ
=425	=425	=425	=425
2.D	2.I/V	8E'L)	16BLL
.	.	.	16G#
.	.	8G#'	16g#
.	.	.	16e
.	.	8B'J	16g#
.	.	.	16eJJ
.	.	8E'	16g#LL
.	.	.	16e
.	.	8r	16g#
.	.	.	16e
.	.	8r	16g#
.	.	.	16eJJ
=426	=426	=426	=426
4.D	4.IV/V	8C#'L	16r
.	.	.	16aLL
.	.	8AA'	16aa
.	.	.	16a
.	.	(8EJ	16aa
.	.	.	16aJJ
4.D	4.V7/V	8D#'L)	16bLL
.	.	.	16a
.	.	8BB'	16aa
.	.	.	16a
.	.	(8F#J	16aa
.	.	.	16aJJ
=427	=427	=427	=427
2.D	2.I/V	8E'L)	16bLL
.	.	.	16g#
.	.	8BB'	16gg#
.	.	.	16ee
.	.	(8G#J	16gg#
.	.	.	16eeJJ
.	.	8B'L)	16gg#LL
.	.	.	16ee
.	.	8G#'	16gg#
.	.	.	16ee
.	.	8E'J	16g#
.	.	.	16eeJJ
=428	=428	=428	=428
4.D	4.IV/V	8C#'L	16r
.	.	.	16aLL
.	.	8AA'	16aa
.	.	.	16a
.	.	(8EJ	16aa
.	.	.	16aJJ
4.D	4.V7/V	8D#'L)	16bLL
.	.	.	16a
.	.	8BB'	16aa
.	.	.	16a
.	.	(8F#J	16aa
.	.	.	16aJJ
=429	=429	=429	=429
4.D	4.I/V	8E'L)	16bLL
.	.	.	16g#
.	.	8BB'	16gg#
.	.	.	16ee
.	.	(8G#J	16gg#
.	.	.	16eeJJ
4.D	4.V7/V	8F#'L)	16dd#LL
.	.	.	16b
.	.	8BB'	16bb
.	.	.	16b
.	.	(8AJ	16bb
.	.	.	16bJJ
=430	=430	=430	=430
4.D	4.Cc/V	8G#'L)	16eeLL
.	.	.	16b
.	.	8BB'	16bb
.	.	.	16b
.	.	(8EJ	16bb
.	.	.	16bJJ
4.D	4.V/V	8BB'L)	16ff#LL
.	.	.	16b
.	.	8BB'	16bb
.	.	.	16b
.	.	8D#'J	16bb
.	.	.	16bJJ
=431	=431	=431	=431
2.D	2.r	2.r;	2.r;
=432	=432	=432	=432
4.D	4.I/V	4E	4.r
.	.	8r	.
4D	4I/V	4r	4r
*-	*-	*-	*-
